ui/assets/img/devtooltime-logo.svg

<svg width="76" height="73" viewBox="0 0 76 73" fill="none" xmlns="http://www.w3.org/2000/svg">
<rect x="0.5" width="75.3053" height="73" rx="7.68421" fill="url(#paint0_linear)"/>
<g clip-path="url(#clip0)">
<path d="M22.4558 19.0461C21.1353 18.0499 19.3108 17.6607 17.2999 18.1171L10.9313 19.5611V33.8826L12.1459 34.8035L18.5165 33.3626C20.5305 32.9056 22.355 31.6864 23.673 30.0905C24.991 28.4946 25.8069 26.5219 25.8069 24.5437C25.8069 22.5655 24.991 20.959 23.6705 19.9621L22.4558 19.0461Z" fill="#FF5543"/>
<path d="M21.2423 18.1264C19.9224 17.1302 18.1011 16.7404 16.0876 17.1968L9.71582 18.6408V32.9691L10.9311 33.8857L17.2998 32.4423C19.3106 31.9871 21.1351 30.7704 22.4557 29.1745C23.7762 27.5786 24.5921 25.6054 24.5921 23.6271C24.5921 21.6489 23.7743 20.0437 22.4557 19.048L21.2423 18.1264Z" fill="#A112FF"/>
<path d="M20.0239 17.2068C18.7053 16.2106 16.8827 15.8233 14.868 16.2803L8.5 17.7243V32.0507L9.71591 32.9692L16.0858 31.5252C18.0993 31.0688 19.9206 29.8533 21.2405 28.2568C22.5603 26.6603 23.3756 24.687 23.3756 22.71C23.3756 20.733 22.5597 19.1247 21.2424 18.1265L20.0239 17.2068Z" fill="#00CBEC"/>
<path d="M14.868 16.2816L8.5 17.7243V32.0508L14.868 30.6068C16.8827 30.1491 18.7053 28.9337 20.0239 27.3384C21.3425 25.7431 22.1597 23.7655 22.1597 21.7873C22.1597 19.809 21.3444 18.205 20.0239 17.2069C18.7034 16.2087 16.8827 15.8233 14.868 16.2816Z" fill="white"/>
<path d="M25.1543 16.2785V30.6031L26.3721 31.5247L38.5249 28.7662V24.3733L37.309 23.4561L36.0931 23.7307V19.9579L35.5099 19.517L38.5249 18.8346V14.4416L37.309 13.5213L25.1543 16.2785Z" fill="#FF5543"/>
<path d="M23.9398 15.3612V29.6864L25.1545 30.603L37.3092 27.847V23.456L36.0932 22.5369L34.8786 22.8109V19.0406L34.2947 18.5985L37.3092 17.9154V13.5212L36.0932 12.6034L23.9398 15.3612Z" fill="#A112FF"/>
<path d="M22.7244 14.4421V28.7679L23.9396 29.6864L36.0931 26.9279V22.5368L34.8765 21.6178L33.6632 21.893V18.1221L33.0799 17.68L36.0931 16.9975V12.6033L34.8765 11.6868L22.7244 14.4421Z" fill="#00CBEC"/>
<path d="M22.7244 28.7679L34.8765 26.012V21.6178L27.5855 23.2728V22.6969L32.4472 21.5947V17.203L27.5855 18.3064V17.7342L34.8765 16.0791V11.6868L22.7244 14.4421V28.7679Z" fill="white"/>
<path d="M48.0818 10.9988L45.7184 18.6957L43.7481 13.1757L42.5315 12.2585L37.408 13.4192L42.9493 26.4878L44.1652 27.4056L48.8793 26.3371L54.4219 10.756L53.2066 9.83755L48.0818 10.9988Z" fill="#FF5543"/>
<path d="M46.8671 10.0816L44.5031 17.7747L42.5315 12.2585L41.3162 11.3406L36.192 12.5032L41.734 25.5706L42.9493 26.4878L47.664 25.4168L53.2066 9.8375L51.9913 8.92093L46.8671 10.0816Z" fill="#A112FF"/>
<path d="M45.65 9.16315L43.2867 16.8581L41.3163 11.3406L40.1017 10.4197L34.9756 11.5816L40.5188 24.6496L41.7341 25.5706L46.4507 24.499L51.9914 8.92093L50.7755 8L45.65 9.16315Z" fill="#00CBEC"/>
<path d="M42.8746 18.1963L40.1017 10.4197L34.9756 11.5816L40.5188 24.6496L45.2335 23.5774L50.7755 8L45.65 9.16315L42.8746 18.1963Z" fill="white"/>
<path d="M12.8844 21.0063L14.3659 26.2168C14.4155 26.3863 14.5308 26.5298 14.6871 26.6165C14.8434 26.7032 15.0282 26.726 15.2015 26.6801C15.2876 26.6586 15.3684 26.6205 15.4394 26.568C15.5103 26.5155 15.5699 26.4497 15.6147 26.3744C15.6595 26.299 15.6885 26.2157 15.7002 26.1292C15.7119 26.0427 15.7059 25.9548 15.6826 25.8706L14.2011 20.6582C14.1509 20.4894 14.0353 20.3466 13.879 20.2605C13.7228 20.1745 13.5384 20.1521 13.3656 20.1981C13.2796 20.2195 13.1988 20.2575 13.1279 20.3099C13.057 20.3623 12.9974 20.428 12.9527 20.5032C12.9079 20.5784 12.8788 20.6617 12.8671 20.748C12.8553 20.8344 12.8612 20.9222 12.8844 21.0063V21.0063Z" fill="#FF5543"/>
<path d="M15.6319 20.9691L11.9093 24.999C11.8489 25.0634 11.8024 25.1392 11.7727 25.2218C11.743 25.3043 11.7308 25.392 11.7367 25.4794C11.7426 25.5668 11.7666 25.6521 11.8072 25.7301C11.8478 25.808 11.9041 25.8771 11.9727 25.933C12.1106 26.0472 12.288 26.1044 12.4679 26.0928C12.6478 26.0812 12.8162 26.0016 12.9376 25.8707L16.6468 21.8414C16.7074 21.7771 16.754 21.7013 16.7837 21.6187C16.8134 21.5361 16.8257 21.4485 16.8198 21.361C16.8138 21.2736 16.7898 21.1883 16.7492 21.1103C16.7085 21.0323 16.6521 20.9633 16.5834 20.9074C16.4485 20.7925 16.2729 20.7345 16.0947 20.746C15.9166 20.7576 15.7502 20.8377 15.6319 20.9691V20.9691Z" fill="#A112FF"/>
<path d="M11.4163 23.22L16.7085 24.9012C16.8798 24.9562 17.0662 24.9426 17.2274 24.8635C17.3885 24.7843 17.5114 24.646 17.5694 24.4784C17.5971 24.396 17.6079 24.309 17.6013 24.2224C17.5946 24.1358 17.5706 24.0514 17.5306 23.9739C17.4906 23.8965 17.4354 23.8276 17.3682 23.7712C17.301 23.7148 17.2231 23.672 17.139 23.6453L11.8468 21.9641C11.6755 21.9091 11.4891 21.9227 11.3279 22.0018C11.1667 22.081 11.0438 22.2193 10.9859 22.3869C10.9583 22.4693 10.9475 22.5563 10.9542 22.6429C10.9609 22.7294 10.985 22.8138 11.0249 22.8912C11.0649 22.9686 11.1201 23.0375 11.1873 23.0939C11.2544 23.1504 11.3323 23.1932 11.4163 23.22V23.22Z" fill="#00CBEC"/>
<path d="M10.9368 34.4087V38.7998L12.1559 39.7195L15.1925 39.0321V47.7682L16.4077 48.6872L21.2676 47.5845V37.6541L25.5214 36.6883V32.2948L24.308 31.3776L10.9368 34.4087Z" fill="#FF5543"/>
<path d="M9.72229 33.4916V37.8821L10.9369 38.7999L13.9774 38.1118V46.8523L15.1926 47.7682L20.0544 46.6642V36.7339L24.3082 35.7681V31.3776L23.091 30.4598L9.72229 33.4916Z" fill="#A112FF"/>
<path d="M8.50745 32.5713V36.9655L9.72209 37.8821L12.7593 37.1959V45.9313L13.9772 46.8523L18.8389 45.7477V35.816L23.0908 34.8509V30.4598L21.8755 29.5407L8.50745 32.5713Z" fill="#00CBEC"/>
<path d="M8.50745 36.9655L12.7593 36.0035V45.9313L17.6224 44.8261V34.9001L21.8755 33.9343V29.5407L8.50745 32.5713V36.9655Z" fill="white"/>
<path d="M37.1172 30.6204C35.7453 29.583 33.8479 29.1801 31.7546 29.6546C29.6613 30.1291 27.7607 31.3931 26.3933 33.0519C25.0259 34.7107 24.17 36.7674 24.17 38.8222C24.17 40.877 25.0195 42.5458 26.3933 43.585L27.6073 44.5072C28.9798 45.5396 30.8785 45.9462 32.9705 45.4717C35.0626 44.9972 36.96 43.7282 38.3331 42.075C39.7062 40.4218 40.5519 38.3583 40.5519 36.301C40.5519 34.2437 39.7037 32.5768 38.3331 31.5394L37.1172 30.6204Z" fill="#FF5543"/>
<path d="M35.9019 29.7008C34.5294 28.6665 32.6326 28.2612 30.5387 28.7363C28.4447 29.2114 26.5486 30.4785 25.1767 32.1342C23.8049 33.7899 22.9541 35.8478 22.9541 37.9033C22.9541 39.9587 23.8023 41.6306 25.1761 42.6698L26.3926 43.587C27.7626 44.6238 29.6587 45.0266 31.7539 44.5522C33.8491 44.0777 35.7447 42.8137 37.1165 41.1536C38.4884 39.4936 39.3353 37.44 39.3353 35.3846C39.3353 33.3291 38.4858 31.6616 37.1172 30.6205L35.9019 29.7008Z" fill="#A112FF"/>
<path d="M34.6853 28.7836C33.3134 27.7475 31.4179 27.3434 29.3227 27.8191C27.2275 28.2948 25.3339 29.5564 23.9614 31.2158C22.5889 32.8752 21.7382 34.9288 21.7382 36.9861C21.7382 39.0434 22.5857 40.7128 23.9614 41.7508L25.1767 42.6699C26.5486 43.7054 28.4428 44.1107 30.5386 43.6356C32.6345 43.1605 34.5294 41.8959 35.9019 40.2377C37.2744 38.5795 38.1238 36.5241 38.1238 34.463C38.1238 32.402 37.2737 30.7401 35.9019 29.7008L34.6853 28.7836Z" fill="#00CBEC"/>
<path d="M29.3227 27.819C27.2307 28.2941 25.3339 29.5562 23.9614 31.2156C22.5889 32.8751 21.7382 34.9286 21.7382 36.986C21.7382 39.0433 22.5857 40.7126 23.9614 41.7506C25.3371 42.7886 27.2301 43.1896 29.3227 42.7152C31.4154 42.2407 33.3166 40.9779 34.6853 39.3191C36.054 37.6603 36.9041 35.6042 36.9041 33.5469C36.9041 31.4896 36.0559 29.8209 34.6853 28.7835C33.3147 27.7461 31.4179 27.3432 29.3227 27.819Z" fill="white"/>
<path d="M52.6926 27.342C51.3208 26.3046 49.4234 25.9018 47.3301 26.3763C45.2368 26.8507 43.3362 28.1148 41.9687 29.7736C40.6013 31.4324 39.7455 33.4884 39.7455 35.5457C39.7455 37.603 40.595 39.2693 41.9687 40.3085L43.1828 41.2289C44.5553 42.2612 46.452 42.6679 48.5447 42.1934C50.6374 41.7189 52.5341 40.4499 53.9073 38.7967C55.2804 37.1435 56.1261 35.08 56.1261 33.0227C56.1261 30.9653 55.2772 29.2985 53.9073 28.2611L52.6926 27.342Z" fill="#FF5543"/>
<path d="M51.4773 26.4225C50.1048 25.3882 48.208 24.9828 46.1141 25.4579C44.0202 25.933 42.124 27.1977 40.7521 28.8559C39.3803 30.514 38.5302 32.5695 38.5302 34.6249C38.5302 36.6804 39.3784 38.3522 40.7521 39.3915L41.9687 40.3087C43.3387 41.3454 45.2348 41.7489 47.33 41.2738C49.4252 40.7987 51.3239 39.5353 52.6926 37.8753C54.0613 36.2152 54.9114 34.1623 54.9114 32.1062C54.9114 30.0501 54.0606 28.3801 52.6926 27.3421L51.4773 26.4225Z" fill="#A112FF"/>
<path d="M50.2608 25.5053C48.889 24.4692 46.9935 24.065 44.8983 24.5408C42.8031 25.0165 40.9095 26.278 39.537 27.9374C38.1645 29.5969 37.3143 31.6504 37.3143 33.7077C37.3143 35.7651 38.1619 37.4344 39.537 38.4724L40.7522 39.3915C42.1241 40.427 44.0183 40.8324 46.1142 40.3573C48.21 39.8822 50.1049 38.6175 51.4774 36.9593C52.8499 35.3012 53.7006 33.2457 53.7006 31.1847C53.7006 29.1236 52.8511 27.4617 51.4786 26.4225L50.2608 25.5053Z" fill="#00CBEC"/>
<path d="M44.8983 24.5406C42.8062 25.0157 40.9095 26.2778 39.537 27.9373C38.1645 29.5967 37.3143 31.6503 37.3143 33.7076C37.3143 35.7649 38.1619 37.4343 39.537 38.4723C40.912 39.5102 42.8056 39.9113 44.8983 39.4368C46.9909 38.9623 48.8921 37.6995 50.2608 36.0407C51.6295 34.3819 52.4796 32.3259 52.4796 30.2685C52.4796 28.2112 51.6314 26.5425 50.2608 25.5051C48.8902 24.4677 46.9935 24.0649 44.8983 24.5406Z" fill="white"/>
<path d="M12.317 49.0472V53.4383L13.5361 54.358L16.5727 53.6705V62.4066L17.788 63.3263L22.6478 62.2229V52.2926L26.9016 51.3268V46.9332L25.6876 46.016L12.317 49.0472Z" fill="#FF5543"/>
<path d="M11.1023 48.1301V52.5205L12.3169 53.4383L15.3574 52.7509V61.4907L16.5726 62.4067L21.4344 61.3033V51.3723L25.6876 50.4066V46.0161L24.471 45.0983L11.1023 48.1301Z" fill="#A112FF"/>
<path d="M9.8877 47.2103V51.6039L11.1023 52.5204L14.1396 51.8349V60.5697L15.3574 61.4907L20.2192 60.3867V50.4544L24.4711 49.4893V45.0982L23.2558 44.1797L9.8877 47.2103Z" fill="#00CBEC"/>
<path d="M9.8877 51.6039L14.1396 50.6418V60.5697L19.0026 59.4651V49.5391L23.2558 48.5727V44.1797L9.8877 47.2103V51.6039Z" fill="white"/>
<path d="M61.4302 33.1062V24.367L60.2149 23.4485L55.3525 24.5513V38.8752L56.5691 39.7968L66.8999 37.4543V33.0582L65.684 32.1429L61.4302 33.1062Z" fill="#FF5543"/>
<path d="M60.2148 32.1859V23.4485L58.9976 22.5294L54.1353 23.6297V37.9587L55.3524 38.8752L65.6839 36.5321V32.1429L64.4674 31.222L60.2148 32.1859Z" fill="#A112FF"/>
<path d="M58.9977 31.2686V22.5294L57.7825 21.6128L52.9226 22.715V37.0402L54.1354 37.9586L64.4674 35.6155V31.2219L63.2528 30.3035L58.9977 31.2686Z" fill="#00CBEC"/>
<path d="M57.7825 21.6128L52.9226 22.715V37.0402L63.2528 34.6989V30.3035L57.7825 31.5426V21.6128Z" fill="white"/>
<path d="M26.2098 45.9358V60.2684L27.4264 61.1887L32.29 60.086V45.7514L31.0735 44.833L26.2098 45.9358Z" fill="#FF5543"/>
<path d="M24.9954 45.0166V59.3524L26.21 60.2683L31.0737 59.1656V44.8329L29.859 43.9126L24.9954 45.0166Z" fill="#A112FF"/>
<path d="M23.7794 44.0975V58.432L24.9953 59.3523L29.859 58.2477V43.9125L28.6424 42.996L23.7794 44.0975Z" fill="#00CBEC"/>
<path d="M23.7794 58.432L28.6424 57.3305V42.996L23.7794 44.0975V58.432Z" fill="white"/>
<path d="M43.2545 42.1903L40.235 49.5758L37.7499 44.6337L36.5353 43.7152L31.5436 44.8485V59.1725L32.7595 60.0915L37.6212 58.9863V55.4016L38.7421 56.2515L43.394 55.1961V56.4831L44.6105 57.4022L49.4704 56.3007V41.9761L48.2557 41.0595L43.2545 42.1903Z" fill="#FF5543"/>
<path d="M42.0367 41.2738L39.0203 48.6575L36.5353 43.7153L35.3193 42.7981L30.3276 43.9308V58.256L31.5436 59.1725L36.4028 58.0698V54.4875L37.5242 55.3313L42.178 54.2758V55.5666L43.394 56.4832L48.2557 55.3817V41.0596L47.0398 40.1399L42.0367 41.2738Z" fill="#A112FF"/>
<path d="M40.8225 40.3541L37.8049 47.7365L35.3192 42.7981L34.1051 41.8784L29.1128 43.0098V57.3343L30.3274 58.2559L35.1886 57.1531V53.5672L36.3113 54.4152L40.9626 53.3604V54.6463L42.1778 55.5666L47.0396 54.4651V40.1399L45.8218 39.2214L40.8225 40.3541Z" fill="#00CBEC"/>
<path d="M37.4663 48.5646L34.1051 41.8784L29.1128 43.0098V57.3344L33.9733 56.2304V51.2633L35.0941 53.4975L39.8411 52.4215L40.9626 49.683V54.6463L45.8218 53.5442V39.2214L40.8225 40.3541L37.4663 48.5646Z" fill="white"/>
<path d="M48.5763 40.9911V55.3157L49.7941 56.2366L61.9469 53.4788V49.0858L60.731 48.1686L59.5151 48.4432V44.6705L58.9318 44.2296L61.9469 43.5472V39.1542L60.731 38.2339L48.5763 40.9911Z" fill="#FF5543"/>
<path d="M47.3612 40.0739V54.3991L48.5765 55.3157L60.7312 52.5592V48.1687L59.5153 47.2496L58.3 47.5236V43.7533L57.7168 43.3112L60.7312 42.6281V38.234L59.5153 37.3161L47.3612 40.0739Z" fill="#A112FF"/>
<path d="M46.1462 39.1548V53.4807L47.3609 54.3991L59.5149 51.6407V47.2496L58.2984 46.3305L57.085 46.6057V42.8348L56.5018 42.3927L59.5149 41.7103V37.3161L58.2984 36.3995L46.1462 39.1548Z" fill="#00CBEC"/>
<path d="M46.1462 53.4807L58.2984 50.7247V46.3305L51.0074 47.9849V47.4096L55.8691 46.3075V41.9158L51.0074 43.0191V42.4469L58.2984 40.7918V36.3995L46.1462 39.1548V53.4807Z" fill="white"/>
</g>
<defs>
<linearGradient id="paint0_linear" x1="-4.99996" y1="94.0001" x2="113.147" y2="36.863" gradientUnits="userSpaceOnUse">
<stop stop-color="#1C23D7"/>
<stop offset="1" stop-color="#8E35F4"/>
</linearGradient>
<clipPath id="clip0">
<rect width="58.4" height="55.3263" fill="white" transform="translate(8.5 8)"/>
</clipPath>
</defs>
</svg>

<svg width="76" height="73" fill="none" xmlns="http://www.w3.org/2000/svg"><rect x=".5" width="75.305" height="73" rx="7.684" fill="url(#a)"/><g clip-path="url(#b)"><path d="M22.456 19.046c-1.32-.996-3.145-1.385-5.156-.929l-6.369 1.444v14.322l1.215.92 6.37-1.44c2.015-.457 3.839-1.677 5.157-3.273 1.318-1.595 2.134-3.568 2.134-5.546 0-1.979-.816-3.585-2.136-4.582l-1.215-.916Z" fill="#FF5543"/><path d="M21.242 18.126c-1.32-.996-3.14-1.386-5.154-.93l-6.372 1.445v14.328l1.215.917 6.369-1.444c2.01-.455 3.835-1.672 5.156-3.268 1.32-1.595 2.136-3.569 2.136-5.547 0-1.978-.818-3.583-2.136-4.579l-1.214-.922Z" fill="#A112FF"/><path d="M20.024 17.207c-1.319-.996-3.141-1.384-5.156-.927L8.5 17.724v14.327l1.216.918 6.37-1.444c2.013-.456 3.835-1.672 5.155-3.268 1.32-1.597 2.135-3.57 2.135-5.547 0-1.977-.816-3.585-2.134-4.584l-1.218-.92Z" fill="#00CBEC"/><path d="M14.868 16.282 8.5 17.724v14.327l6.368-1.444c2.015-.458 3.837-1.673 5.156-3.269 1.319-1.595 2.136-3.573 2.136-5.55 0-1.979-.816-3.583-2.136-4.581-1.32-.998-3.141-1.384-5.156-.925Z" fill="#fff"/><path d="M25.154 16.279v14.324l1.218.922 12.153-2.759v-4.393l-1.216-.917-1.216.275v-3.773l-.583-.441 3.015-.682v-4.393l-1.216-.92-12.155 2.757Z" fill="#FF5543"/><path d="M23.94 15.361v14.325l1.214.917 12.155-2.756v-4.391l-1.216-.92-1.214.275v-3.77l-.584-.442 3.014-.684v-4.394l-1.216-.918-12.153 2.758Z" fill="#A112FF"/><path d="M22.724 14.442v14.326l1.216.918 12.153-2.758v-4.391l-1.217-.92-1.213.276v-3.77l-.583-.443 3.013-.683v-4.394l-1.217-.916-12.152 2.755Z" fill="#00CBEC"/><path d="m22.724 28.768 12.152-2.756v-4.394l-7.29 1.655v-.576l4.861-1.102v-4.392l-4.862 1.103v-.572l7.291-1.655v-4.392l-12.152 2.755v14.326Z" fill="#fff"/><path d="m48.082 10.999-2.364 7.697-1.97-5.52-1.216-.918-5.124 1.161 5.541 13.069 1.216.918 4.714-1.069 5.543-15.581-1.215-.918-5.125 1.16Z" fill="#FF5543"/><path d="m46.867 10.082-2.364 7.693-1.971-5.516-1.216-.918-5.124 1.162 5.542 13.068 1.215.917 4.715-1.071 5.543-15.58-1.216-.916-5.124 1.16Z" fill="#A112FF"/><path d="m45.65 9.163-2.363 7.695-1.97-5.517-1.215-.921-5.126 1.162 5.543 13.068 1.215.92 4.717-1.071 5.54-15.578L50.776 8 45.65 9.163Z" fill="#00CBEC"/><path d="m42.875 18.196-2.773-7.776-5.126 1.162 5.543 13.068 4.715-1.073L50.775 8 45.65 9.163l-2.775 9.033Z" fill="#fff"/><path d="m12.884 21.006 1.482 5.21c.05.17.165.314.321.4a.695.695 0 0 0 .928-.242.65.65 0 0 0 .068-.503L14.2 20.658a.674.674 0 0 0-.322-.398.695.695 0 0 0-.513-.062.674.674 0 0 0-.413.305.649.649 0 0 0-.069.503Z" fill="#FF5543"/><path d="m15.632 20.97-3.723 4.029a.645.645 0 0 0-.172.48.636.636 0 0 0 .236.454.705.705 0 0 0 .965-.062l3.709-4.03a.641.641 0 0 0 .102-.73.648.648 0 0 0-.166-.204.686.686 0 0 0-.951.062Z" fill="#A112FF"/><path d="m11.416 23.22 5.293 1.681a.696.696 0 0 0 .518-.038.677.677 0 0 0 .342-.385.648.648 0 0 0-.2-.707.674.674 0 0 0-.23-.126l-5.292-1.68a.696.696 0 0 0-.52.037.676.676 0 0 0-.341.385.648.648 0 0 0 .201.707c.067.056.145.1.23.126Z" fill="#00CBEC"/><path d="M10.937 34.409v4.39l1.219.92 3.037-.687v8.736l1.215.92 4.86-1.104v-9.93l4.253-.966v-4.393l-1.213-.917-13.371 3.03Z" fill="#FF5543"/><path d="M9.722 33.492v4.39l1.215.918 3.04-.688v8.74l1.216.916 4.861-1.104v-9.93l4.254-.966v-4.39l-1.217-.918-13.369 3.032Z" fill="#A112FF"/><path d="M8.507 32.571v4.395l1.215.916 3.037-.686v8.735l1.218.921 4.862-1.104v-9.932l4.252-.965V30.46l-1.216-.92-13.368 3.031Z" fill="#00CBEC"/><path d="m8.507 36.965 4.252-.962v9.928l4.863-1.105V34.9l4.253-.966v-4.393L8.507 32.57v4.395Z" fill="#fff"/><path d="M37.117 30.62c-1.372-1.037-3.27-1.44-5.362-.965-2.094.474-3.994 1.738-5.362 3.397-1.367 1.659-2.223 3.715-2.223 5.77 0 2.055.85 3.724 2.223 4.763l1.214.922c1.373 1.033 3.271 1.44 5.364.965 2.092-.475 3.989-1.744 5.362-3.397 1.373-1.653 2.219-3.717 2.219-5.774s-.848-3.724-2.219-4.762l-1.216-.919Z" fill="#FF5543"/><path d="M35.902 29.7c-1.373-1.034-3.27-1.439-5.363-.964-2.094.475-3.99 1.742-5.362 3.398-1.372 1.656-2.223 3.714-2.223 5.77 0 2.055.848 3.727 2.222 4.766l1.217.917c1.37 1.037 3.266 1.44 5.36.965 2.096-.474 3.992-1.738 5.364-3.398 1.371-1.66 2.218-3.714 2.218-5.77 0-2.055-.85-3.722-2.218-4.764l-1.215-.92Z" fill="#A112FF"/><path d="M34.685 28.784c-1.372-1.037-3.267-1.44-5.362-.965-2.096.476-3.99 1.737-5.362 3.397-1.372 1.66-2.223 3.713-2.223 5.77 0 2.057.848 3.727 2.223 4.765l1.216.919c1.372 1.035 3.266 1.44 5.362.966 2.096-.476 3.99-1.74 5.363-3.398 1.372-1.658 2.222-3.714 2.222-5.775 0-2.061-.85-3.723-2.222-4.762l-1.217-.917Z" fill="#00CBEC"/><path d="M29.323 27.819c-2.092.475-3.99 1.737-5.362 3.397-1.372 1.66-2.223 3.713-2.223 5.77 0 2.057.848 3.727 2.223 4.765 1.376 1.038 3.27 1.439 5.362.964 2.092-.474 3.994-1.737 5.362-3.396 1.369-1.659 2.22-3.715 2.22-5.772 0-2.057-.85-3.726-2.22-4.763-1.37-1.038-3.267-1.44-5.362-.965Z" fill="#fff"/><path d="M52.693 27.342c-1.372-1.037-3.27-1.44-5.363-.966-2.093.475-3.994 1.739-5.361 3.398-1.368 1.658-2.224 3.714-2.224 5.772 0 2.057.85 3.723 2.224 4.763l1.214.92c1.372 1.032 3.269 1.439 5.362.964 2.092-.474 3.99-1.743 5.362-3.396 1.373-1.653 2.22-3.717 2.22-5.774 0-2.058-.85-3.725-2.22-4.762l-1.214-.919Z" fill="#FF5543"/><path d="M51.477 26.422c-1.372-1.034-3.269-1.44-5.363-.964-2.094.475-3.99 1.74-5.362 3.398-1.372 1.658-2.222 3.713-2.222 5.769 0 2.055.848 3.727 2.222 4.767l1.217.917c1.37 1.036 3.266 1.44 5.361.965 2.095-.475 3.994-1.739 5.363-3.399 1.368-1.66 2.218-3.713 2.218-5.769s-.85-3.726-2.218-4.764l-1.216-.92Z" fill="#A112FF"/><path d="M50.26 25.505c-1.371-1.036-3.267-1.44-5.362-.964s-3.989 1.737-5.361 3.396c-1.373 1.66-2.223 3.713-2.223 5.77 0 2.058.848 3.727 2.223 4.765l1.215.92c1.372 1.035 3.266 1.44 5.362.965s3.99-1.74 5.363-3.398c1.373-1.658 2.224-3.713 2.224-5.774s-.85-3.723-2.222-4.762l-1.218-.918Z" fill="#00CBEC"/><path d="M44.898 24.54c-2.092.476-3.989 1.738-5.361 3.397-1.373 1.66-2.223 3.713-2.223 5.77 0 2.058.848 3.727 2.223 4.765 1.375 1.038 3.269 1.44 5.361.965 2.093-.475 3.994-1.737 5.363-3.396 1.368-1.66 2.219-3.715 2.219-5.772 0-2.058-.849-3.726-2.22-4.764-1.37-1.037-3.267-1.44-5.362-.964Z" fill="#fff"/><path d="M12.317 49.047v4.391l1.22.92 3.036-.688v8.737l1.215.92 4.86-1.104v-9.93l4.254-.966v-4.394l-1.214-.917-13.371 3.031Z" fill="#FF5543"/><path d="M11.102 48.13v4.39l1.215.918 3.04-.687v8.74l1.216.916 4.861-1.104v-9.93l4.254-.966v-4.39l-1.217-.919-13.369 3.032Z" fill="#A112FF"/><path d="M9.888 47.21v4.394l1.214.916 3.038-.685v8.735l1.217.92 4.862-1.103v-9.933l4.252-.965V45.1l-1.215-.92-13.368 3.03Z" fill="#00CBEC"/><path d="m9.888 51.604 4.252-.962v9.928l4.863-1.105V49.54l4.253-.966V44.18L9.888 47.21v4.394Z" fill="#fff"/><path d="M61.43 33.106v-8.739l-1.215-.919-4.863 1.103v14.324l1.217.922 10.33-2.343v-4.396l-1.215-.915-4.254.963Z" fill="#FF5543"/><path d="M60.215 32.186v-8.738l-1.217-.919-4.863 1.1v14.33l1.217.916 10.332-2.343v-4.39l-1.217-.92-4.252.964Z" fill="#A112FF"/><path d="M58.998 31.269v-8.74l-1.215-.916-4.86 1.102V37.04l1.212.919 10.332-2.344v-4.393l-1.214-.919-4.255.966Z" fill="#00CBEC"/><path d="m57.782 21.613-4.86 1.102V37.04l10.33-2.341v-4.395l-5.47 1.239v-9.93Z" fill="#fff"/><path d="M26.21 45.936v14.332l1.216.92 4.864-1.102V45.751l-1.216-.918-4.864 1.103Z" fill="#FF5543"/><path d="M24.995 45.017v14.335l1.215.916 4.864-1.102V44.833l-1.215-.92-4.864 1.104Z" fill="#A112FF"/><path d="M23.78 44.097v14.335l1.215.92 4.864-1.104V43.913l-1.217-.917-4.863 1.101Z" fill="#00CBEC"/><path d="m23.78 58.432 4.862-1.102V42.996l-4.863 1.101v14.335Z" fill="#fff"/><path d="m43.255 42.19-3.02 7.386-2.485-4.942-1.215-.919-4.991 1.133v14.325l1.216.919 4.861-1.106v-3.584l1.121.85 4.652-1.056v1.287l1.217.92 4.86-1.102V41.976l-1.215-.916-5.002 1.13Z" fill="#FF5543"/><path d="m42.037 41.274-3.017 7.383-2.485-4.942-1.216-.917-4.991 1.133v14.325l1.216.916 4.859-1.102v-3.583l1.121.844 4.654-1.055v1.29l1.216.917 4.862-1.101V41.06l-1.216-.92-5.003 1.134Z" fill="#A112FF"/><path d="m40.822 40.354-3.017 7.383-2.486-4.939-1.214-.92-4.992 1.132v14.324l1.214.922 4.862-1.103v-3.586l1.122.848 4.652-1.055v1.286l1.215.92 4.862-1.1V40.14l-1.218-.919-5 1.133Z" fill="#00CBEC"/><path d="m37.466 48.565-3.36-6.687-4.993 1.132v14.324l4.86-1.104v-4.967l1.121 2.235 4.747-1.076 1.122-2.739v4.963l4.859-1.102V39.221l-5 1.133-3.356 8.21Z" fill="#fff"/><path d="M48.576 40.991v14.325l1.218.92 12.153-2.757v-4.393l-1.216-.917-1.216.274V44.67l-.583-.44 3.015-.683v-4.393l-1.216-.92-12.155 2.757Z" fill="#FF5543"/><path d="M47.361 40.074v14.325l1.216.917 12.154-2.757v-4.39l-1.216-.92-1.215.275v-3.77l-.583-.443 3.014-.683v-4.394l-1.216-.918-12.154 2.758Z" fill="#A112FF"/><path d="M46.146 39.155V53.48l1.215.918 12.154-2.758v-4.39l-1.217-.92-1.213.276v-3.771l-.583-.442 3.013-.683v-4.394l-1.217-.916-12.152 2.755Z" fill="#00CBEC"/><path d="m46.146 53.48 12.152-2.755V46.33l-7.29 1.655v-.575l4.861-1.102v-4.392l-4.862 1.103v-.572l7.291-1.655V36.4l-12.152 2.755V53.48Z" fill="#fff"/></g><defs><linearGradient id="a" x1="-5" y1="94" x2="113.147" y2="36.863" gradientUnits="userSpaceOnUse"><stop stop-color="#1C23D7"/><stop offset="1" stop-color="#8E35F4"/></linearGradient><clipPath id="b"><path fill="#fff" transform="translate(8.5 8)" d="M0 0h58.4v55.326H0z"/></clipPath></defs></svg>
